X: 15436
T: Glen Massan
R: waltz
M: 3/4
K: Dmajor
F3 ED2|A3F A2|B3cd2|AF4 A|
B3AB2|d3BB2|A2F2 D2|E6|
F3 ED2|A3F A2|B3cd2|AF4 A|
B3AA2|d4F F|E3DC2|D6|
F3 ED2|A3F A2|B3cd2|AF4 A|
B3AB2|d3BB2|A2F2 D2|E6|
F3 ED2|A3F A2|B3cd2|AF4 A|
B3AA2|d4F F|E3DC2|D4A2||
|:B3cd2|A3F A2|B2c2d2|A3F A2|
B3cd2|d2e2f2|f3 ed2|e4z2|
F3 ED2|A3F A2|B3cd2|AF4 A|
B3AB2|d3AF2|E3F E2|D6:|

